X: 10063
M: C
L: 1/8
P: Slowly if not danced
K: D
d>Adf d>Adf | d>f g/f/e/d/ f<ee>f | d>B AF D<gf>e | (d/c/)B/A/ (B/A/)G/F/ G<EE>c |
d>Adf d>Adf | d>f g/f/e/d/ f<ee>g | (g/f/)e/d/ (f/e/)d/c/ (d/c/)B/A/ (B/A/)G/F/ | (G/F/)E/D/ (D/E/)F/E/ D<B,B, |]


